X: 3197
T: Beehive, The
R: reel
M: 4/4
K: Eminor
||E2 B2 e d2 A-|AB DE FG AB|EB eB fB gf-|fg ef g b2 E-|
E2 B2 e d2 A-|AB DE FG AB|eB g f2 g eg|fg eg de dB:|
GG ED E2 cA-|AA AG FG AB|GG ED E2 cA-|AG AB d4|
GG ED E2 cA-|AA AG FG Ad|BB AG A2 GE-|EE DE G E3:|

